X: 98
M: C|
L: 1/8
K: D
|: ABcd |\
e2e2 e2e2 | e2d2 e2a2 | g4  f4 | e4 DEFG |\
|: gfe^d |\
e4 gfe^d | e2A2B2c2 | d2G2 F2 E2 | F2D2 gfe^d |\
e4 gfe^d | e2A2B2c2 | d2G2 F2 E2 | D4 :|
|: F2G2 |\


